icons/mail.svg

<svg width="49" height="49" viewBox="0 0 49 49" fill="none" xmlns="http://www.w3.org/2000/svg">
<rect y="0.848999" width="48.0537" height="48.0537" rx="24.0268" fill="#DBDBDB"/>
<path d="M12.0132 20.5643L23.6487 26.7279C23.7654 26.7897 23.8951 26.822 24.0266 26.822C24.1582 26.822 24.2878 26.7897 24.4045 26.7279L36.04 20.5654V31.2718C36.0401 32.1953 35.6932 33.0837 35.0706 33.7549C34.4479 34.4261 33.5967 34.8292 32.6916 34.8814L32.4906 34.887H15.5626C14.656 34.8871 13.7837 34.5338 13.1247 33.8996C12.4657 33.2654 12.07 32.3984 12.0186 31.4765L12.0132 31.2718V20.5643ZM15.5626 14.8646H32.4906C33.3972 14.8646 34.2695 15.2179 34.9285 15.852C35.5875 16.4862 35.9832 17.3532 36.0346 18.2751L36.04 18.4798V18.6844L24.0266 25.0471L12.0132 18.6844V18.4798C12.0131 17.5564 12.36 16.6679 12.9826 15.9967C13.6053 15.3255 14.4565 14.9225 15.3617 14.8702L15.5626 14.8646H32.4906H15.5626Z" fill="#A6A6A6"/>
</svg>

<svg width="49" height="49" fill="none" xmlns="http://www.w3.org/2000/svg"><rect y=".849" width="48.054" height="48.054" rx="24.027" fill="#DBDBDB"/><path d="m12.013 20.564 11.636 6.164a.807.807 0 0 0 .755 0l11.636-6.163v10.707c0 .923-.347 1.812-.97 2.483a3.522 3.522 0 0 1-2.378 1.126l-.201.006H15.563a3.515 3.515 0 0 1-2.438-.987 3.644 3.644 0 0 1-1.106-2.423l-.006-.205V20.564Zm3.55-5.7H32.49c.906 0 1.779.354 2.438.988a3.644 3.644 0 0 1 1.106 2.423l.005.205v.204l-12.013 6.363-12.014-6.363v-.204c0-.924.347-1.812.97-2.483a3.523 3.523 0 0 1 2.379-1.127l.2-.005h16.929-16.928Z" fill="#A6A6A6"/></svg>
